src/icons/strategies.svg

<svg width="24" height="24" viewBox="0 0 24 24" fill="none" xmlns="http://www.w3.org/2000/svg">
<path d="M8.5 2L6 4.5L3.5 2L2 3.5L4.5 6L2 8.5L3.5 10L6 7.5L8.5 10L10 8.5L7.5 6L10 3.5L8.5 2Z" fill="black"/>
<path fill-rule="evenodd" clip-rule="evenodd" d="M6 22C3.79086 22 2 20.2091 2 18C2 15.7909 3.79086 14 6 14C6.74181 14 7.43645 14.2019 8.03197 14.5538L18.5858 4H14V2H22V10H20V5.41421L9.44618 15.968C9.79807 16.5635 10 17.2582 10 18C10 20.2091 8.20914 22 6 22ZM6 20C4.89543 20 4 19.1046 4 18C4 16.8954 4.89543 16 6 16C7.10457 16 8 16.8954 8 18C8 19.1046 7.10457 20 6 20Z" fill="black"/>
<path d="M18 16.5L15.5 14L14 15.5L16.5 18L14 20.5L15.5 22L18 19.5L20.5 22L22 20.5L19.5 18L22 15.5L20.5 14L18 16.5Z" fill="black"/>
</svg>

<svg xmlns="http://www.w3.org/2000/svg" width="24" height="24" fill="none"><path fill="currentColor" d="M8.5 2 6 4.5 3.5 2 2 3.5 4.5 6 2 8.5 3.5 10 6 7.5 8.5 10 10 8.5 7.5 6 10 3.5z"/><path fill="currentColor" fill-rule="evenodd" d="M6 22a4 4 0 1 1 2.032-7.446L18.586 4H14V2h8v8h-2V5.414L9.446 15.968A4 4 0 0 1 6 22m0-2a2 2 0 1 1 0-4 2 2 0 0 1 0 4" clip-rule="evenodd"/><path fill="currentColor" d="M18 16.5 15.5 14 14 15.5l2.5 2.5-2.5 2.5 1.5 1.5 2.5-2.5 2.5 2.5 1.5-1.5-2.5-2.5 2.5-2.5-1.5-1.5z"/></svg>
